X: 1
T: Green Grow the Rashes
R: strathspey
Z: 2006 John Chambers <jc:trillian.mit.edu>
S: handwritten MS of unknown origin
B: Gow Collection
M: C
L: 1/16
K: G
D2 |\
"G"GGG2 B3A B2G2 G2B2 | "Am"AAA2 e3d e2A2 "D7"A2B2 |\
"C"c3B  ce3  "G"dcBA G3B  | "Am"ABc2 "(B7)"B3A "Em"G2E2 E2 :|
F2 |\
"G"GGG2 g3f g2d2 d2g2 | "Am"eee2 a3g a2e2 "D7"e3f  |\
"C"g3a  g2e2 "G"dcBA G3B  | "Am"ABc2 "(B7)"B3A "Em"G2E2 E2 |]
F2 |\
"G"GGG2 g3f g2d2 d2g2 | "Am"eee2 a3g a2e2 "D7"e3f  |\
"Em"g2b2 e2g2 "G"d2g2 B2g2 | "Am"ABc2 "(B7)"B3A "Em"G2E2 E2 |]

%%sep 1 1 500
%%sep 1 1 500

